X:13064
T:Phelim's Frolic
R:Reel
S:
H:
N:
D:Paddy Carty & Conor Tully (Session Tape)
Z:Adrian Scahill
M:4/4
L:1/8
K:C
cGG2 AGED|CDEG c3d|cGG2 AGEG|AcGE DCA,C|\
G,CC2 EGG2|AGFA G2AB|c2Bd cAGc|(3ABc GE DGAB:||\
c2ec Gcc2|(3efg dB cBGA|_B2dB fBdB|c_BGA BGF2|\
Gcc2 ecc2|efgf dcBd|gfdB cAGE|1 F2DB, CDEG:||
